X:1
T:Potenza, 11.8.11.8 D
T:Potenza, 11.8.11.8 D
T:Ira Allan Sankey, 1902
T:Public Domain Courtesy of the Cyber Hymnal™
C:Ira Allan Sankey, 1902
Z:Public Domain
Z:Courtesy of the Cyber Hymnal™
%%score ( 1 2 ) ( 3 4 )
L:1/8
Q:1/4=133
M:3/4
K:G
V:1 treble 
V:2 treble 
V:3 bass 
V:4 bass 
V:1
 D2 | [B,D]2 [_B,E]2 [CF]2 | [B,A]2 [DG]2 [DE]2 | [CG]2 [CF]3 [CE] | [CF]4 D2 | [Fc]2 [FB]2 [FA]2 | %6
 [CE]2 [CF]2 [CA]2 | ([B,-E]6 | [B,D]4) [B,D]2 | [CE]2 [C^D]2 [CE]2 | [EA]2 [EG]2 [CE]2 | %11
 [B,E]2 [B,D]3 [^A,^C] | [B,D]4 D2 | [A,^C]2 [CE]2 [CG]2 | [^CB]2 [CA]3 E | [DA]6- | [DA]4 (Bc) | %17
 [Gd]2 [G^c]2 [Ge]2 | [Gd]4 [DG][FA] | [GB]2 [G^A]2 [Gc]2 | [GB]4 [DB]2 | [Fd]2 [FA]2 [^E^G]2 | %22
 [FA]2 [FB]2 [Fc]2 | ([G-c]6 | [GB]4) [Gd]2 | [Ge]2 [Gc]2 [Ge]2 | [Gd]2 [DB]2 [Dd]2 | %27
 [Fc]2 [FA]3 [Ac] | [GB]4 D2 | [CE]2 [EA]2 [EG]2 | [DF]2 [FB]3 [FA] | G6- | G4 |] %33
V:2
 D2 | x6 | x6 | x6 | x4 D2 | x6 | x6 | x6 | x6 | x6 | x6 | x6 | x4 D2 | x6 | x5 E | x6 | x4 D2 | %17
 x6 | x6 | x6 | x6 | x6 | x6 | x6 | x6 | x6 | x6 | x6 | x4 D2 | x6 | x6 | G6- | G4 |] %33
V:3
 D,2 | [G,,D,]2 [G,,^C,]2 [G,,_E,]2 | [G,,D,]2 [B,,G,]2 [_B,,G,]2 | [A,,A,]2 [D,A,]3 [D,G,] | %4
 [D,A,]4 [D,F,]2 | [D,A,]2 [D,D]2 [D,C]2 | [D,F,]2 [D,A,]2 [D,F,]2 | [G,,G,]6- | %8
 [G,,G,]4 [G,,G,]2 | [C,G,]2 [C,F,]2 [C,G,]2 | [C,C]2 [C,G,]2 [C,G,]2 | [G,,G,]2 [G,,G,]3 [G,,E,] | %12
 [G,,G,]4 [B,,G,]2 | [A,,E,]2 [A,,E,]2 [A,,E,]2 | [A,,G,]2 [A,,E,]3 [^C,G,] | [D,F,]6- | %16
 [D,F,]4 (G,A,) | [G,B,]2 [G,^A,]2 [G,B,]2 | [G,B,]4 [B,D][A,D] | [G,D]2 [G,^C]2 [G,E]2 | %20
 [G,D]4 G,2 | [D,A,]2 [D,C]2 [D,B,]2 | [D,C]2 [D,D]2 [D,E]2 | ([G,-E]6 | [G,D]4) [G,B,]2 | %25
 [C,C]2 [E,C]2 [C,C]2 | [G,B,]2 G,2 [G,B,]2 | [D,A,]2 [D,D]3 [F,D] | [G,D]4 [B,,G,]2 | %29
 [C,G,]2 [A,,C]2 [^C,A,]2 | [D,A,]2 [D,D]3 [D,C] | [G,,B,]6- | [G,,B,]4 |] %33
V:4
 D,2 | x6 | x6 | x6 | x6 | x6 | x6 | x6 | x6 | x6 | x6 | x6 | x6 | x6 | x6 | x6 | x4 G,2 | x6 | %18
 x6 | x6 | x4 G,2 | x6 | x6 | x6 | x6 | x6 | x2 G,2 x2 | x6 | x6 | x6 | x6 | x6 | x4 |] %33

